Front-end/assets/images/icons/_b.svg

<svg width="48" height="48" viewBox="0 0 48 48" fill="none" xmlns="http://www.w3.org/2000/svg">
<path fill-rule="evenodd" clip-rule="evenodd" d="M39.5344 22.6871C39.6474 22.0891 40.0066 20.6526 40.0307 20.5768C40.0554 20.4989 40.0751 20.4205 40.09 20.3421C43.6271 18.2547 46 14.4045 46 10C46 8.81745 45.8715 7.94293 45.5701 7.03673L45.5556 6.99326L45.5555 6.99285C45.5212 6.88961 45.4953 6.81172 45.4678 6.73443C45.3833 6.49719 45.2831 6.26553 44.8759 5.32387L44.8515 5.26735C44.4132 4.25349 43.2359 3.78694 42.222 4.22529C41.2082 4.66364 40.7416 5.84089 41.18 6.85476L41.1992 6.89925C41.5807 7.78154 41.6563 7.9564 41.7193 8.13567C41.7349 8.18 41.7498 8.2246 41.7682 8.28023L41.7683 8.28027L41.7745 8.29906C41.9338 8.77788 42 9.22868 42 10C42 14.4183 38.4183 18 34 18C29.5817 18 26 14.4183 26 10C26 9.44774 25.7761 8.94774 25.4142 8.58581C25.0523 8.22388 24.5523 8.00002 24 8.00002C22.8954 8.00002 22 8.89545 22 10C22 14.4183 18.4183 18 14 18C9.58172 18 6 14.4183 6 10C6 9.22868 6.06625 8.77788 6.2255 8.29906L6.23178 8.28017C6.25026 8.22457 6.26508 8.17999 6.28066 8.13567C6.34372 7.95638 6.41933 7.78151 6.80088 6.89903L6.82002 6.85476C7.25837 5.84089 6.79182 4.66364 5.77796 4.22529C4.76409 3.78694 3.58684 4.25349 3.14849 5.26735L3.12384 5.32436L3.12384 5.32437C2.71688 6.26561 2.61673 6.49723 2.53222 6.73443C2.50463 6.81185 2.47871 6.88986 2.44432 6.99334L2.4299 7.03673C2.12852 7.94293 2 8.81745 2 10C2 14.4129 4.38204 18.2695 7.93046 20.3541C7.94504 20.4285 7.96399 20.5028 7.98747 20.5768C8.01151 20.6526 8.37073 22.0891 8.48372 22.6871C9.32324 27.1302 9.25612 31.9036 7.68847 36.3197C7.11304 37.9407 6.3448 39.4648 5.3681 40.8797C4.74061 41.7887 4.96884 43.0343 5.87786 43.6618C6.78689 44.2893 8.03248 44.0611 8.65997 43.1521C9.84081 41.4414 10.7675 39.6029 11.458 37.6578C13.2972 32.4768 13.3739 27.0236 12.4048 21.8949C12.9267 21.9642 13.4592 22 14 22C18.1739 22 21.8502 19.869 24 16.6356C26.1498 19.869 29.8261 22 34 22C34.3771 22 34.7502 21.9826 35.1152 21.9656H35.1152C35.2799 21.9579 35.4429 21.9503 35.604 21.9444C34.6443 27.0236 34.7209 32.4768 36.5601 37.6578C37.2506 39.6029 38.1773 41.4414 39.3582 43.1521C39.9856 44.0611 41.2312 44.2893 42.1403 43.6618C43.0493 43.0343 43.2775 41.7887 42.65 40.8797C41.6733 39.4648 40.9051 37.9407 40.3297 36.3197C38.762 31.9036 38.6949 27.1302 39.5344 22.6871ZM10 13C10 14.1046 10.8954 15 12 15C13.1046 15 14 14.1046 14 13C14 11.8955 13.1046 11 12 11C10.8954 11 10 11.8955 10 13ZM36 15C34.8954 15 34 14.1046 34 13C34 11.8955 34.8954 11 36 11C37.1046 11 38 11.8955 38 13C38 14.1046 37.1046 15 36 15ZM24 34C22.8877 34 22 34.8945 22 35.9979V38.0021C22 39.1018 22.8954 40 24 40C25.1123 40 26 39.1055 26 38.0021V35.9979C26 34.8983 25.1046 34 24 34Z" fill="black"/>
</svg>

<svg width="48" height="48" fill="none" xmlns="http://www.w3.org/2000/svg"><path fill-rule="evenodd" clip-rule="evenodd" d="M39.534 22.687c.113-.598.473-2.034.497-2.11.024-.078.044-.157.059-.235A11.995 11.995 0 0046 10c0-1.183-.129-2.057-.43-2.963l-.014-.044c-.035-.103-.06-.181-.088-.259-.085-.237-.185-.468-.592-1.41l-.024-.057a2 2 0 10-3.672 1.588l.02.044c.38.883.456 1.057.52 1.237l.048.144.007.02c.159.478.225.929.225 1.7a8 8 0 11-16 0c0-.552-.224-1.052-.586-1.414A2 2 0 0022 10a8 8 0 11-16 0c0-.771.066-1.222.226-1.7l.006-.02.049-.144c.063-.18.138-.354.52-1.237l.019-.044a2 2 0 00-3.672-1.588l-.024.057c-.407.942-.507 1.173-.592 1.41l-.088.26-.014.043C2.129 7.943 2 8.817 2 10c0 4.413 2.382 8.27 5.93 10.354a45.96 45.96 0 01.553 2.333c.84 4.443.773 9.217-.795 13.633a19.428 19.428 0 01-2.32 4.56 2 2 0 003.292 2.272 23.426 23.426 0 002.798-5.494c1.84-5.181 1.916-10.634.947-15.763.522.07 1.054.105 1.595.105a11.99 11.99 0 0010-5.364A11.989 11.989 0 0034 22c.377 0 .75-.017 1.115-.034.165-.008.328-.016.489-.022-.96 5.08-.883 10.533.956 15.714a23.423 23.423 0 002.798 5.494 2 2 0 103.292-2.272 19.427 19.427 0 01-2.32-4.56c-1.568-4.416-1.635-9.19-.796-13.633zM10 13a2 2 0 104 0 2 2 0 00-4 0zm26 2a2 2 0 110-4 2 2 0 010 4zM24 34c-1.112 0-2 .895-2 1.998v2.004a2 2 0 004 0v-2.004A2 2 0 0024 34z" fill="#000"/></svg>
